X: 28
T: The Tanner Man
C: Flos Headford
N: Flos Headford is a fiddle player for the Old Swan Band and the
N: English Country Dance Band.
D: "Barn Dance" by the English Country Dance Band
M: 4/4
L: 1/4
K:G % 1 sharp
D|: G G/2B/2 A A/2B/2|G G d3/2c/2|B/2A/2G A A|B3/2c/2 B A|
    G G/2B/2 A A/2B/2|G G d3/2c/2|B/2A/2G A F|1 G3 D :|2 G3 d
 |: g/2f/2e d/2c/2B|c c d3/2c/2|B/2A/2G c e|d3 d|
    g/2f/2e d/2c/2B|c c B2|B3/2c/2 B A|1 G3 d:|2 G3 z|
